X:1
T: Lady Georgina Russell's Reel
C:William Marshall
R:Reel
Q: 232
K:Bb
M:4/4
L:1/8
|:B,2 B,D FD BF|GF GB c1/2c1/2c c2|B,2 B,D FD BF|GF GA B1/2B1/2B B2|
B,2 B,D FD BF|GF GB c1/2c1/2c c2|B,2 B,D FD BF|GF GA B1/2B1/2B B2|
df dB eg ec|df dB c1/2c1/2c c2|df dB eg ec|FB Ac B1/2B1/2B B2|
df dB eg ec|df dB c1/2c1/2c c2|B,D CE DF EG|FB Ac B1/2B1/2B B2:|
